src/cart/components/img/Good_Red.svg

<svg height="50" viewBox="0 0 50 50" width="50" xmlns="http://www.w3.org/2000/svg"><g fill="#ff1744"><path d="m25 45.814c-11.478 0-20.82-9.337-20.82-20.815s9.342-20.819 20.82-20.819c11.479 0 20.815 9.341 20.815 20.819 0 11.479-9.336 20.815-20.815 20.815m0-45.814c-13.787 0-25 11.212-25 24.999 0 13.782 11.213 25 25 25 13.781 0 25-11.218 25-25 0-13.787-11.219-24.999-25-24.999"/><path d="m14.797 27.361c-.959 0-1.835.584-2.246 1.499-.411.918-.277 1.996.333 2.776 3.075 3.925 7.606 6.191 12.439 6.191 4.816 0 9.347-2.246 12.423-6.171.618-.767.736-1.857.334-2.764-.417-.916-1.279-1.502-2.243-1.502z"/><path d="m30.951 23.171c1.87 0 3.391-1.52 3.391-3.396s-1.521-3.396-3.391-3.396c-1.883 0-3.402 1.52-3.402 3.396s1.519 3.396 3.402 3.396"/><path d="m19.049 23.171c1.876 0 3.396-1.52 3.396-3.396s-1.52-3.396-3.396-3.396c-1.87 0-3.396 1.52-3.396 3.396s1.526 3.396 3.396 3.396"/></g></svg>

<?xml version="1.0" encoding="UTF-8"?>
<svg width="50px" height="50px" viewBox="0 0 50 50" version="1.1" xmlns="http://www.w3.org/2000/svg" xmlns:xlink="http://www.w3.org/1999/xlink">
    <!-- Generator: Sketch 48.2 (47327) - http://www.bohemiancoding.com/sketch -->
    <title>Artboard 2</title>
    <desc>Created with Sketch.</desc>
    <defs></defs>
    <g id="2018011811" stroke="none" stroke-width="1" fill="none" fill-rule="evenodd">
        <g id="Artboard-2" fill="#FF1744" fill-rule="nonzero">
            <path d="M25,45.814 C13.522,45.814 4.18,36.477 4.18,24.999 C4.18,13.521 13.522,4.18 25,4.18 C36.479,4.18 45.815,13.521 45.815,24.999 C45.815,36.478 36.479,45.814 25,45.814 M25,0 C11.213,0 0,11.212 0,24.999 C0,38.781 11.213,49.999 25,49.999 C38.781,49.999 50,38.781 50,24.999 C50,11.212 38.781,0 25,0" id="Fill-1"></path>
            <path d="M14.797,27.361 C13.838,27.361 12.962,27.945 12.551,28.86 C12.14,29.778 12.274,30.856 12.884,31.636 C15.959,35.561 20.49,37.827 25.323,37.827 C30.139,37.827 34.67,35.581 37.746,31.656 C38.364,30.889 38.482,29.799 38.08,28.892 C37.663,27.976 36.801,27.39 35.837,27.39 L14.797,27.361 Z" id="Fill-7"></path>
            <path d="M30.951,23.171 C32.821,23.171 34.342,21.651 34.342,19.775 C34.342,17.899 32.821,16.379 30.951,16.379 C29.068,16.379 27.549,17.899 27.549,19.775 C27.549,21.651 29.068,23.171 30.951,23.171" id="Fill-3"></path>
            <path d="M19.049,23.171 C20.925,23.171 22.445,21.651 22.445,19.775 C22.445,17.899 20.925,16.379 19.049,16.379 C17.179,16.379 15.653,17.899 15.653,19.775 C15.653,21.651 17.179,23.171 19.049,23.171" id="Fill-5"></path>
        </g>
    </g>
</svg>
